svgs/sharp-thin/folder-arrow-up.svg

<svg xmlns="http://www.w3.org/2000/svg" viewBox="0 0 512 512"><!--! Font Awesome Pro 6.6.0 by @fontawesome - https://fontawesome.com License - https://fontawesome.com/license (Commercial License) Copyright 2024 Fonticons, Inc. --><path d="M224 32l48 64 224 0 16 0 0 16 0 352 0 16-16 0L16 480 0 480l0-16L0 48 0 32l16 0 208 0zm48 80l-8 0-4.8-6.4L216 48 16 48l0 416 480 0 0-352-224 0zm-8 280l0 8-16 0 0-8 0-188.7-74.3 74.3-5.7 5.7L156.7 272l5.7-5.7 88-88 5.7-5.7 5.7 5.7 88 88 5.7 5.7L344 283.3l-5.7-5.7L264 203.3 264 392z"/></svg>

<svg xmlns="http://www.w3.org/2000/svg" viewBox="0 0 512 512"><!--! Font Awesome Pro 6.5.2 by @fontawesome - https://fontawesome.com License - https://fontawesome.com/license (Commercial License) Copyright 2024 Fonticons, Inc. --><path d="M224 32l48 64H496h16v16V464v16H496 16 0V464 48 32H16 224zm48 80h-8l-4.8-6.4L216 48H16V464H496V112H272zm-8 280v8H248v-8V203.3l-74.3 74.3-5.7 5.7L156.7 272l5.7-5.7 88-88 5.7-5.7 5.7 5.7 88 88 5.7 5.7L344 283.3l-5.7-5.7L264 203.3V392z"/></svg>
